X:358
T:Triumph, the
R: hp 24
S: Thomas Hardy's Manuscripts
M:2/4
L:1/8
K:G
.g2|"G" dB BG|"D7" cA AF|"G" Gg fe|"C" e2 dg|"G" dB BG|"D7" cA AF|"G" G2 B2|"G" G2:|!
z2|"D7" A3c|"G" B2d2|"D7" A3c|"G" B2d2|"D7" AAAc|"G" BBBd|"C7" B2 "D" A2|"G" G2:|!
A2|"G" B2 Bd|"C" ed cB|"D" A2 AB|"C" c2 "G" B2|"D" AB cd|"C" ef ge|"D" dc BA|"G" G3G:|!

